src/lib/packages/icons/src/assets/line/test-tube-alt.svg

<svg width="24" height="24" viewBox="0 0 24 24" fill="none" xmlns="http://www.w3.org/2000/svg">
<path d="M21.5301 9.46999L14.5311 2.46999C14.2381 2.17699 13.763 2.17699 13.47 2.46999C13.177 2.76299 13.177 3.23803 13.47 3.53103L13.94 4.001L3.50409 14.4361C1.83409 16.1071 1.83409 18.8261 3.50409 20.4961C4.31409 21.3061 5.39012 21.751 6.53412 21.751C7.68012 21.751 8.75602 21.3051 9.56402 20.4961L19.9991 10.063L20.4681 10.532C20.6141 10.678 20.8061 10.752 20.9981 10.752C21.1891 10.752 21.382 10.679 21.528 10.532C21.823 10.238 21.8231 9.76299 21.5301 9.46999ZM8.50506 19.4341C7.45206 20.4871 5.6181 20.4871 4.5661 19.4341C3.4811 18.3481 3.4811 16.5811 4.5661 15.4951L6.31109 13.75H14.19L8.50506 19.4341ZM15.689 12.25H7.81012L15.0001 5.06008L18.939 9.00002L15.689 12.25Z" fill="currentColor"/>
</svg>

<svg xmlns="http://www.w3.org/2000/svg" width="24" height="24" fill="none"><path fill="currentColor" d="m21.53 9.47-6.999-7a.75.75 0 0 0-1.061 1.061l.47.47L3.504 14.436a4.291 4.291 0 0 0 0 6.06 4.256 4.256 0 0 0 3.03 1.255 4.253 4.253 0 0 0 3.03-1.255l10.435-10.433.47.469a.748.748 0 0 0 1.059 0 .75.75 0 0 0 .002-1.062ZM8.505 19.434c-1.053 1.053-2.887 1.053-3.939 0a2.79 2.79 0 0 1 0-3.939l1.745-1.745h7.879l-5.685 5.684Zm7.184-7.184H7.81L15 5.06 18.94 9l-3.25 3.25Z"/></svg>
